X:1
T:Title
%%score 1 { 2 | 3 }
L:1/8
Q:1/4=93
M:4/4
K:Db
V:1 treble nm="Grand Piano, Soprano"
V:2 bass nm="Choir Pad, From the Cyber Hymnal™"
V:3 bass 
V:1
 [Fd]>[Fd] [Ec]>[Ge] [Fd]2 [FA]2 | DEFG A4 | [FA]>[FA] [_F=G]>[_GB] [=FA]2 [Fd]2 | %3
w: By~J.~M.~Pierce * * * * *|||
 [Ec]>[Ed] [Ec]>[DB] [CA]4 | [FA]>[FA] [GB]>[Gc] [Fd]2 [FA]2 | [DF]>[DF] [DG]>[DA] [DB]4 | %6
w: |||
 [DB]>[DB] [Ec]>[Ed] [Fd]2 [FA]2 | [DA]>[DG] [DF]>[CE] D4 | [FA]2 [FB]2 [FA]2 [Fd]2 | %9
w: |||
 [FA]>[FB] [FA]>[FB] [FA]4 | [GA]2 [GB]2 [GA]2 [Ge]2 | [=GB]>[Gd] [GB]>[Gd] [_Gc]4 | %12
w: |||
 [FA]2 [FB]2 [FA]2 [Af]2 | [Ad]>[Ad] [Ad]>[Ac] [GB]4 | [GB]>[Bd] [Ac]>[GB] [FA]>[Fd] [_Fd][Fd] | %15
w: |||
 [Fd]2 [Gc]>[Fd] [Fd]4- | [Fd]4 z4 |] %17
w: ||
V:2
 A,>A, A,>A, A,2 D2 | D,E,F,G, A,4 | D>D D>D D2 D2 | A,>B, A,>=G, A,4 | %4
w: 1.~~ * * * * *||||
 A,>[K:treble]D D>A, A,2 D2 | A,>A, G,>F, G,4 | G,>G, G,>G, A,2 D2 | A,>B, A,>G, F,4 | %8
w: ||||
 D2 D2 D2 D2 | D>D D>D D4 | C2 C2 C2 C2 | E>E E>E E4 | D2 D2 D2 D2 | D>D D>D D4 | %14
w: ||||||
 D>D D>D D>D[K:bass] =G,G, | A,2 A,>A, A,4- | A,4 z4 |] %17
w: |||
V:3
 D,>D, A,,>A,, D,2 D,2 | z8 | D,>D, D,>D, D,2 D,2 | E,>E, E,>E, A,,4 | D,>D, G,>E, D,2 D,2 | %5
 D,>_C, B,,>A,, G,,4 | z4 D,2 D,2 | F,>F, z z/ A,,/ D,4 | D,2 D,2 D,2 D,2 | D,>D, D,>D, D,4 | %10
 A,2 A,2 A,2 A,2 | E,>E, E,>E, A,,4 | D,2 D,2 D,2 D,2 | F,>F, F,>F, G,4 | %14
 G,>G, G,>G, D,>D, B,,B,, | A,,2 A,,>D, D,4- | D,4 z4 |] %17

